tenants/businesswise/icons/placeholder.svg

<svg fill="none" height="24" viewBox="0 0 24 24" width="24" xmlns="http://www.w3.org/2000/svg"><path d="m2.37331 15.3169c-.46903-.5101-.55518-1.5092.08615-2.2956.22973-.2763.79447-.8821 2.45043-2.6782 7.27471-7.96017 9.97401-9.607466 12.02241-7.5138 1.522 1.55165.0862 4.26172-2.6801 8.5553-3.5991 5.6008-4.36486 6.7486-3.8097 7.365.4212.4677 1.5124-.1275 4.3074-2.8588 3.0535-2.9864 4.5755-4.3786 5.8581-2.9864.8998.9777.4307 2.3381-.8423 4.7612-.9955 1.8917-1.4454 2.8908-1.1295 3.2415.2967.3294 1.273-.2445 2.5461-1.6367.2106-.2232.4882-.2551.6892-.0425.2106.2338.1532.5526-.1053.829-1.8091 1.9129-3.1587 2.3699-3.8766 1.5622-1.0147-1.1159.0574-2.9013.9859-4.6868.8136-1.5517 1.2252-2.4444.8519-2.8589-.5361-.5845-1.991.9353-4.0203 2.912-3.4459 3.369-5.4752 4.6125-6.71953 3.2202-1.61767-1.796.56475-4.8356 3.86713-10.0113 1.4071-2.17867 3.0917-4.85686 2.3738-5.46264-.7944-.71206-3.9915 2.82698-8.43292 7.83264-1.56981 1.7855-2.11541 2.4231-2.36429 2.6569-.68918.6802-1.58895.6058-2.05798.0957z" fill="#000"/></svg>

<svg width="24" height="24" viewBox="0 0 24 24" fill="none" xmlns="http://www.w3.org/2000/svg">
<path d="M2.37331 15.3169C1.90428 14.8068 1.81813 13.8077 2.45946 13.0213C2.68919 12.745 3.25393 12.1392 4.90989 10.3431C12.1846 2.38293 14.8839 0.735634 16.9323 2.8293C18.4543 4.38095 17.0185 7.09102 14.2522 11.3846C10.6531 16.9854 9.88734 18.1332 10.4425 18.7496C10.8637 19.2173 11.9549 18.6221 14.7499 15.8908C17.8034 12.9044 19.3254 11.5122 20.608 12.9044C21.5078 13.8821 21.0387 15.2425 19.7657 17.6656C18.7702 19.5573 18.3203 20.5564 18.6362 20.9071C18.9329 21.2365 19.9092 20.6626 21.1823 19.2704C21.3929 19.0472 21.6705 19.0153 21.8715 19.2279C22.0821 19.4617 22.0247 19.7805 21.7662 20.0569C19.9571 21.9698 18.6075 22.4268 17.8896 21.6191C16.8749 20.5032 17.947 18.7178 18.8755 16.9323C19.6891 15.3806 20.1007 14.4879 19.7274 14.0734C19.1913 13.4889 17.7364 15.0087 15.7071 16.9854C12.2612 20.3544 10.2319 21.5979 8.98757 20.2056C7.3699 18.4096 9.55232 15.37 12.8547 10.1943C14.2618 8.01563 15.9464 5.33744 15.2285 4.73166C14.4341 4.0196 11.237 7.55864 6.79558 12.5643C5.22577 14.3498 4.68017 14.9874 4.43129 15.2212C3.74211 15.9014 2.84234 15.827 2.37331 15.3169Z" fill="black"/>
</svg>
